X:1
T:Two Little Sisters
M:4/4
L:1/8
K:C
 B2 BB B2 A2| GG GE D4| d3 d d2 e2| B4 d4| B2 BB B2 A2| GG GE D4| G2 BB A2 B2|\
 G4 G4|
